!! 00000] TT[00
!! NN
!!!OTL: Kan shehuo
!!!ARE: Asia, China,ÿHenan, Lushi
!! Ethnic Group: Han
!! IV, 170
!!!SCT: C0396
!!!YEM: Copyright 1995, estate of Helmut Schaffrath.
**kern
*ICvox
*Ivox
!! Mixed meters:  2/4; 1/4
*M1/4
*k[f#]
*G:
{8dd
8gg
8dd
8b
=1
16a
16b
16a
16g
8a
16a
16a
=2
8dd
8gg
8dd
8b
=3
16a
16b
16a
16g
8a
16a
16dd}
=4
{8g
8g
8r
8a
=5
8gg
16b
16dd
8dd
16dd
16b
=6
16a
16b
16a
16g
8g
8a
=7
2g}
=8
{8g
8a
8dd
8dd
=9
8gg
8dd
8dd
8b
=10
8dd
8dd
8dd
8g
=11
8a
8a}
=12
{8b
8g
=13
8a
8a}
=14
{8b
8g
=15
8a
8a}
=16
{8b
8g
=17
8a
8a}
=18
{8b
8g
=19
4a}
=20
*M2/4
{8.d
16d
8g
8g
=21
8a
4dd
8g
=22
8e
8d
16e
16d
8c
=23
2d}
=24
{8.dd
16a
8dd
8b
=25
8a
16dd
16b
8a
8g}
=26
{8d
8d
8g
8g
=27
8a
4dd
8g
=28
8e
8d
16e
16d
8c
=29
2d}
==
!!!AGN: Xiaodiao, Jianjianhua diao
!!!ONB: ESAC (Essen Associative Code) Database: CHINA
!!!AMT: irregular
!!!AIN: vox
!!!EED: Helmut Schaffrath
!!!EEV: 1.0
*-
